src/topics/icons/stackoverflow.svg

<svg height="114" preserveAspectRatio="xMidYMid" viewBox="0 0 512 114" width="512" xmlns="http://www.w3.org/2000/svg"><g fill="#0a0b09" transform="translate(97.52381 51.397683)"><path d="m15.4390734 54.2252149c-6.24745435 0-11.1394595-1.4299099-15.20383016-5.3433822l3.61233462-3.6129936c2.93559846 3.0851789 6.92484944 4.2903887 11.51637584 4.2903887 6.095897 0 9.8597889-2.1830837 9.8597889-6.548592 0-3.2360772-1.8826049-5.0422446-6.1723346-5.4191609l-6.096556-.5264968c-7.22532819-.6022754-11.06368083-3.8383526-11.06368083-9.9349086 0-6.7739511 5.71963964-10.8376628 13.62302193-10.8376628 5.2682625 0 10.0100283 1.2796705 13.3218841 3.9879331l-3.5378739 3.5372149c-2.6338018-2.0308674-6.0207773-2.9349395-9.8591299-2.9349395-5.4198199 0-8.27963968 2.333982-8.27963968 6.096556 0 3.1616164 1.80616731 5.0435624 6.47281338 5.4191608l5.9456577.5264968c6.4734723.6029344 10.9134414 3.0858379 10.9134414 10.0113462 0 7.1495496-6.096556 11.2890399-15.0522728 11.2890399"/><path d="m46.9708932 53.7738378c-6.322574 0-9.4835316-4.441287-9.4835316-9.9349086v-22.7296371h-4.6659871v-4.1401492h4.6659871v-11.59017765h5.4191609v11.59017765h7.9027233v4.1401492h-7.9027233v22.5787388c0 3.3869755 1.5808083 5.4191609 5.0429035 5.4191609h2.8598198v4.666646z"/><path d="m78.8348211 36.6887207h-10.3862857c-5.5700592 0-8.2796396 2.2582034-8.2796396 6.5472742 0 4.2903886 2.6344607 6.3232329 8.5049987 6.3232329 3.1616164 0 5.9456576-.226677 8.2789807-2.4842214 1.2796705-1.2038919 1.8819459-3.3111969 1.8819459-6.3976937zm0 17.0851171v-3.5378738c-3.0107181 3.0113771-5.7202986 3.9892509-10.6874234 3.9892509-5.1180232 0-8.1287413-.9778738-10.4627233-3.3863166-1.8055084-1.8074852-2.7840412-4.5915264-2.7840412-7.5271248 0-6.4721545 4.5157478-10.6880824 12.7947284-10.6880824h11.1394595v-3.5372149c0-5.417843-2.7095804-8.1280824-9.4835315-8.1280824-4.7411068 0-7.1502085 1.1294312-9.3326332 4.2146101l-3.6881133-3.3863166c3.3118559-4.2903887 7.0750888-5.4942806 13.0965251-5.4942806 9.9342497 0 14.8262548 4.2890708 14.8262548 12.3420335v25.1393976z"/><path d="m105.477931 54.2252149c-9.3326337 0-16.4077225-6.322574-16.4077225-18.9664041 0-12.644489 7.0750888-18.9664041 16.4077225-18.9664041 5.118023 0 8.3541 1.3541313 12.192453 5.4942806l-3.687455 3.4614363c-2.7847-3.0858379-4.967784-4.1388315-8.504998-4.1388315-3.612994 0-6.6230533 1.429251-8.5801189 4.2146101-1.7310476 2.4084427-2.4084427 5.2689215-2.4084427 9.9349086s.6773951 7.5264659 2.4084427 9.9349086c1.9570656 2.7847002 4.9671249 4.2146101 8.5801189 4.2146101 3.537214 0 5.720298-1.1287722 8.504998-4.2146101l3.687455 3.5378739c-3.838353 4.1381725-7.07443 5.4936216-12.192453 5.4936216"/><path d="m147.33739 53.7738378-11.741735-18.967063-7.225328 8.2789807v10.6880823h-5.419161v-53.58933329h5.419161v35.82616219l16.70886-19.2675419h6.773951l-12.56937 14.1495187 14.751135 22.8811943z"/><path d="m175.893416 26.1923912c-1.070126-1.0701261-2.497401-1.6407722-4.351671-1.6407722-1.854929 0-3.209719.5706461-4.279845 1.6407722-1.926755 1.9254363-2.140253 5.1351558-2.140253 8.9880052 0 3.8515315.213498 7.1330759 2.140253 9.0578533 1.070126 1.0701261 2.424916 1.6414311 4.279845 1.6414311 1.85427 0 3.281545-.571305 4.351671-1.6414311 1.924777-1.9247774 2.139593-5.2063218 2.139593-9.0578533 0-3.8528494-.214816-7.0625689-2.139593-8.9880052zm7.204242 23.4676551c-2.283244 2.4255753-6.063609 4.5651686-11.555913 4.5651686s-9.201503-2.1395933-11.484087-4.5651686c-3.352711-3.4950424-4.20868-7.7043809-4.20868-14.4796499 0-6.7054209.855969-10.9141004 4.20868-14.4098018 2.282584-2.4249164 5.991783-4.5651686 11.484087-4.5651686s9.272669 2.1402522 11.555913 4.5651686c3.352051 3.4957014 4.208679 7.7043809 4.208679 14.4098018 0 6.775269-.856628 10.9846075-4.208679 14.4796499z"/><path d="m208.14678 53.7969009h-7.276067l-13.695506-37.1631609h9.772149l7.56139 22.968834 7.489565-22.968834h9.77215z"/><path d="m243.752196 27.7613385c-.998302-2.2114183-3.067388-3.8515316-6.2066-3.8515316-3.137895 0-5.206981 1.6401133-6.204623 3.8515316-.571305 1.3554491-.786121 2.3530914-.856628 3.9945225h14.12382c-.071825-1.6414311-.285323-2.6390734-.855969-3.9945225zm-13.267851 10.3427953c0 4.7793257 2.924396 8.2743681 8.131377 8.2743681 4.066347 0 6.063609-1.1406332 8.418018-3.4950424l5.635295 5.4923037c-3.781025 3.7803655-7.419058 5.8494517-14.12382 5.8494517-8.774507 0-17.191207-3.9938635-17.191207-19.0448185 0-12.1272175 6.56243-18.9749704 16.191588-18.9749704 10.343454 0 16.192906 7.56139 16.192906 17.7618533v4.1368545z"/><path d="m278.544474 26.7623784c-1.427275-1.4266152-2.639074-2.2107594-4.921658-2.2107594-2.85323 0-5.992443 2.1395934-5.992443 6.8477529v22.397529h-9.273328v-37.1631609h9.05983v3.5662085c1.782445-2.1402522 5.349972-3.9945225 9.343835-3.9945225 3.638034 0 6.205941.9271351 8.774508 3.4957014z"/><path d="m323.320422 53.7969009c-7.632556 0-10.842275-5.3493127-10.842275-10.6281184v-41.74150837h9.273328v41.17020337c0 2.2120772.927135 3.3527104 3.280226 3.3527104h3.566209v7.846713zm-22.099686-30.0860952v30.0860952h-9.273328v-30.0860952h-3.851532v-7.061251h3.851532v-4.6376525c0-5.27748779 3.280885-10.62745947 10.842275-10.62745947h5.278806v7.84605405h-3.566867c-2.21076 0-3.280886 1.21245822-3.280886 3.35271042v4.0663475h6.847753v7.061251z"/><path d="m349.972757 26.1923912c-1.069467-1.0701261-2.496742-1.6407722-4.351671-1.6407722-1.85427 0-3.209719.5706461-4.279845 1.6407722-1.926096 1.9254363-2.139594 5.1351558-2.139594 8.9880052 0 3.8515315.213498 7.1330759 2.139594 9.0578533 1.070126 1.0701261 2.425575 1.6414311 4.279845 1.6414311 1.854929 0 3.282204-.571305 4.351671-1.6414311 1.925436-1.9247774 2.140252-5.2063218 2.140252-9.0578533 0-3.8528494-.214816-7.0625689-2.140252-8.9880052zm7.204242 23.4676551c-2.282585 2.4255753-6.063609 4.5651686-11.555913 4.5651686s-9.200844-2.1395933-11.483428-4.5651686c-3.352711-3.4950424-4.209339-7.7043809-4.209339-14.4796499 0-6.7054209.856628-10.9141004 4.209339-14.4098018 2.282584-2.4249164 5.991124-4.5651686 11.483428-4.5651686s9.273328 2.1402522 11.555913 4.5651686c3.35271 3.4957014 4.209338 7.7043809 4.209338 14.4098018 0 6.775269-.856628 10.9846075-4.209338 14.4796499z"/><path d="m403.00001 53.7969009h-7.631897l-7.774888-23.3246641-7.774888 23.3246641h-7.632556l-11.412921-37.1631609h9.843974l5.991125 22.968834 7.562049-22.968834h6.775269l7.632556 22.968834 5.992442-22.968834h9.77215z"/></g><path d="m63.2771377 73.1751454-43.425112-10.5325714 2.1066461-8.6848906 43.425112 10.5319125z" fill="#b58f52"/><path d="m66.1883552 62.784906-39.7903732-20.3323963 4.0663475-7.9580747 39.7903732 20.3323964z" fill="#c78431"/><path d="m72.3171995 52.021704-33.6503269-29.398816 5.8791042-6.7298018 33.6509859 29.398157z" fill="#e9812c"/><path d="m81.574713 42.5605766-25.0932716-36.97272589 7.394677-5.01852252 25.0932716 36.97272591z" fill="#e5712a"/><path d="m62.5819511 84.0378481-44.6178018-2.4361184.4869601-8.9240875 44.6178018 2.4367774z" fill="#9d8469"/><g fill="#797b7b"><path d="m71.8328752 105.058842v-37.0234649h8.9287001l.0065894 45.9620489h-80.7681647l.00197683-46.0009266h8.93660747v37.0623426z"/><path d="m17.8402677 87.2205508h44.9874698v8.9366075h-44.9874698z"/></g></svg>

<?xml version="1.0" encoding="UTF-8" standalone="no" ?>
<svg width="512px" height="114px" viewBox="0 0 512 114" version="1.1" xmlns="http://www.w3.org/2000/svg" xmlns:xlink="http://www.w3.org/1999/xlink" preserveAspectRatio="xMidYMid">
    <g>
        <g transform="translate(97.523810, 51.397683)" fill="#0A0B09">
            <path d="M15.4390734,54.2252149 C9.19161905,54.2252149 4.2996139,52.795305 0.235243243,48.8818327 L3.84757786,45.2688391 C6.78317632,48.354018 10.7724273,49.5592278 15.3639537,49.5592278 C21.4598507,49.5592278 25.2237426,47.3761441 25.2237426,43.0106358 C25.2237426,39.7745586 23.3411377,37.9683912 19.051408,37.5914749 L12.954852,37.0649781 C5.72952381,36.4627027 1.89117117,33.2266255 1.89117117,27.1300695 C1.89117117,20.3561184 7.61081081,16.2924067 15.5141931,16.2924067 C20.7824556,16.2924067 25.5242214,17.5720772 28.8360772,20.2803398 L25.2982033,23.8175547 C22.6644015,21.7866873 19.277426,20.8826152 15.4390734,20.8826152 C10.0192535,20.8826152 7.15943372,23.2165972 7.15943372,26.9791712 C7.15943372,30.1407876 8.96560103,32.0227336 13.6322471,32.398332 L19.5779048,32.9248288 C26.0513771,33.5277632 30.4913462,36.0106667 30.4913462,42.936175 C30.4913462,50.0857246 24.3947902,54.2252149 15.4390734,54.2252149"></path>
            <path d="M46.9708932,53.7738378 C40.6483192,53.7738378 37.4873616,49.3325508 37.4873616,43.8389292 L37.4873616,21.1092921 L32.8213745,21.1092921 L32.8213745,16.9691429 L37.4873616,16.9691429 L37.4873616,5.37896525 L42.9065225,5.37896525 L42.9065225,16.9691429 L50.8092458,16.9691429 L50.8092458,21.1092921 L42.9065225,21.1092921 L42.9065225,43.6880309 C42.9065225,47.0750064 44.4873308,49.1071918 47.949426,49.1071918 L50.8092458,49.1071918 L50.8092458,53.7738378 L46.9708932,53.7738378"></path>
            <path d="M78.8348211,36.6887207 L68.4485354,36.6887207 C62.8784762,36.6887207 60.1688958,38.9469241 60.1688958,43.2359949 C60.1688958,47.5263835 62.8033565,49.5592278 68.6738945,49.5592278 C71.8355109,49.5592278 74.6195521,49.3325508 76.9528752,47.0750064 C78.2325457,45.8711145 78.8348211,43.7638095 78.8348211,40.6773127 L78.8348211,36.6887207 L78.8348211,36.6887207 Z M78.8348211,53.7738378 L78.8348211,50.235964 C75.824103,53.2473411 73.1145225,54.2252149 68.1473977,54.2252149 C63.0293745,54.2252149 60.0186564,53.2473411 57.6846744,50.8388983 C55.879166,49.0314131 54.9006332,46.2473719 54.9006332,43.3117735 C54.9006332,36.839619 59.416381,32.6236911 67.6953616,32.6236911 L78.8348211,32.6236911 L78.8348211,29.0864762 C78.8348211,23.6686332 76.1252407,20.9583938 69.3512896,20.9583938 C64.6101828,20.9583938 62.2010811,22.087825 60.0186564,25.1730039 L56.3305431,21.7866873 C59.642399,17.4962986 63.4056319,16.2924067 69.4270682,16.2924067 C79.3613179,16.2924067 84.253323,20.5814775 84.253323,28.6344402 L84.253323,53.7738378 L78.8348211,53.7738378 L78.8348211,53.7738378 Z"></path>
            <path d="M105.477931,54.2252149 C96.1452973,54.2252149 89.0702085,47.9026409 89.0702085,35.2588108 C89.0702085,22.6143218 96.1452973,16.2924067 105.477931,16.2924067 C110.595954,16.2924067 113.832031,17.646538 117.670384,21.7866873 L113.982929,25.2481236 C111.198229,22.1622857 109.015145,21.1092921 105.477931,21.1092921 C101.864937,21.1092921 98.8548777,22.5385431 96.8978121,25.3239022 C95.1667645,27.7323449 94.4893694,30.5928237 94.4893694,35.2588108 C94.4893694,39.9247979 95.1667645,42.7852767 96.8978121,45.1937194 C98.8548777,47.9784196 101.864937,49.4083295 105.477931,49.4083295 C109.015145,49.4083295 111.198229,48.2795573 113.982929,45.1937194 L117.670384,48.7315933 C113.832031,52.8697658 110.595954,54.2252149 105.477931,54.2252149"></path>
            <path d="M147.33739,53.7738378 L135.595655,34.8067748 L128.370327,43.0857555 L128.370327,53.7738378 L122.951166,53.7738378 L122.951166,0.184504505 L128.370327,0.184504505 L128.370327,36.0106667 L145.079187,16.7431248 L151.853138,16.7431248 L139.283768,30.8926435 L154.034903,53.7738378 L147.33739,53.7738378"></path>
            <path d="M175.893416,26.1923912 C174.82329,25.1222651 173.396015,24.551619 171.541745,24.551619 C169.686816,24.551619 168.332026,25.1222651 167.2619,26.1923912 C165.335145,28.1178275 165.121647,31.327547 165.121647,35.1803964 C165.121647,39.0319279 165.335145,42.3134723 167.2619,44.2382497 C168.332026,45.3083758 169.686816,45.8796808 171.541745,45.8796808 C173.396015,45.8796808 174.82329,45.3083758 175.893416,44.2382497 C177.818193,42.3134723 178.033009,39.0319279 178.033009,35.1803964 C178.033009,31.327547 177.818193,28.1178275 175.893416,26.1923912 L175.893416,26.1923912 Z M183.097658,49.6600463 C180.814414,52.0856216 177.034049,54.2252149 171.541745,54.2252149 C166.049441,54.2252149 162.340242,52.0856216 160.057658,49.6600463 C156.704947,46.1650039 155.848978,41.9556654 155.848978,35.1803964 C155.848978,28.4749755 156.704947,24.266296 160.057658,20.7705946 C162.340242,18.3456782 166.049441,16.205426 171.541745,16.205426 C177.034049,16.205426 180.814414,18.3456782 183.097658,20.7705946 C186.449709,24.266296 187.306337,28.4749755 187.306337,35.1803964 C187.306337,41.9556654 186.449709,46.1650039 183.097658,49.6600463 L183.097658,49.6600463 Z"></path>
            <path d="M208.14678,53.7969009 L200.870713,53.7969009 L187.175207,16.63374 L196.947356,16.63374 L204.508746,39.602574 L211.998311,16.63374 L221.770461,16.63374 L208.14678,53.7969009"></path>
            <path d="M243.752196,27.7613385 C242.753894,25.5499202 240.684808,23.9098069 237.545596,23.9098069 C234.407701,23.9098069 232.338615,25.5499202 231.340973,27.7613385 C230.769668,29.1167876 230.554852,30.1144299 230.484345,31.755861 L244.608165,31.755861 C244.53634,30.1144299 244.322842,29.1167876 243.752196,27.7613385 L243.752196,27.7613385 Z M230.484345,38.1041338 C230.484345,42.8834595 233.408741,46.3785019 238.615722,46.3785019 C242.682069,46.3785019 244.679331,45.2378687 247.03374,42.8834595 L252.669035,48.3757632 C248.88801,52.1561287 245.249977,54.2252149 238.545215,54.2252149 C229.770708,54.2252149 221.354008,50.2313514 221.354008,35.1803964 C221.354008,23.0531789 227.916438,16.205426 237.545596,16.205426 C247.88905,16.205426 253.738502,23.766816 253.738502,33.9672793 L253.738502,38.1041338 L230.484345,38.1041338 L230.484345,38.1041338 Z"></path>
            <path d="M278.544474,26.7623784 C277.117199,25.3357632 275.9054,24.551619 273.622816,24.551619 C270.769586,24.551619 267.630373,26.6912124 267.630373,31.3993719 L267.630373,53.7969009 L258.357045,53.7969009 L258.357045,16.63374 L267.416875,16.63374 L267.416875,20.1999485 C269.19932,18.0596963 272.766847,16.205426 276.76071,16.205426 C280.398744,16.205426 282.966651,17.1325611 285.535218,19.7011274 L278.544474,26.7623784"></path>
            <path d="M323.320422,53.7969009 C315.687866,53.7969009 312.478147,48.4475882 312.478147,43.1687825 L312.478147,1.42727413 L321.751475,1.42727413 L321.751475,42.5974775 C321.751475,44.8095547 322.67861,45.9501879 325.031701,45.9501879 L328.59791,45.9501879 L328.59791,53.7969009 L323.320422,53.7969009 L323.320422,53.7969009 Z M301.220736,23.7108057 L301.220736,53.7969009 L291.947408,53.7969009 L291.947408,23.7108057 L288.095876,23.7108057 L288.095876,16.6495547 L291.947408,16.6495547 L291.947408,12.0119022 C291.947408,6.73441441 295.228293,1.38444273 302.789683,1.38444273 L308.068489,1.38444273 L308.068489,9.23049678 L304.501622,9.23049678 C302.290862,9.23049678 301.220736,10.442955 301.220736,12.5832072 L301.220736,16.6495547 L308.068489,16.6495547 L308.068489,23.7108057 L301.220736,23.7108057 L301.220736,23.7108057 Z"></path>
            <path d="M349.972757,26.1923912 C348.90329,25.1222651 347.476015,24.551619 345.621086,24.551619 C343.766816,24.551619 342.411367,25.1222651 341.341241,26.1923912 C339.415145,28.1178275 339.201647,31.327547 339.201647,35.1803964 C339.201647,39.0319279 339.415145,42.3134723 341.341241,44.2382497 C342.411367,45.3083758 343.766816,45.8796808 345.621086,45.8796808 C347.476015,45.8796808 348.90329,45.3083758 349.972757,44.2382497 C351.898193,42.3134723 352.113009,39.0319279 352.113009,35.1803964 C352.113009,31.327547 351.898193,28.1178275 349.972757,26.1923912 L349.972757,26.1923912 Z M357.176999,49.6600463 C354.894414,52.0856216 351.11339,54.2252149 345.621086,54.2252149 C340.128782,54.2252149 336.420242,52.0856216 334.137658,49.6600463 C330.784947,46.1650039 329.928319,41.9556654 329.928319,35.1803964 C329.928319,28.4749755 330.784947,24.266296 334.137658,20.7705946 C336.420242,18.3456782 340.128782,16.205426 345.621086,16.205426 C351.11339,16.205426 354.894414,18.3456782 357.176999,20.7705946 C360.529709,24.266296 361.386337,28.4749755 361.386337,35.1803964 C361.386337,41.9556654 360.529709,46.1650039 357.176999,49.6600463 L357.176999,49.6600463 Z"></path>
            <path d="M403.00001,53.7969009 L395.368113,53.7969009 L387.593225,30.4722368 L379.818337,53.7969009 L372.185781,53.7969009 L360.77286,16.63374 L370.616834,16.63374 L376.607959,39.602574 L384.170008,16.63374 L390.945277,16.63374 L398.577833,39.602574 L404.570275,16.63374 L414.342425,16.63374 L403.00001,53.7969009"></path>
        </g>
        <g>
            <path d="M63.2771377,73.1751454 L19.8520257,62.642574 L21.9586718,53.9576834 L65.3837838,64.4895959 L63.2771377,73.1751454" fill="#B58F52"></path>
            <path d="M66.1883552,62.784906 L26.397982,42.4525097 L30.4643295,34.494435 L70.2547027,54.8268314 L66.1883552,62.784906" fill="#C78431"></path>
            <path d="M72.3171995,52.021704 L38.6668726,22.622888 L44.5459768,15.8930862 L78.1969627,45.2912432 L72.3171995,52.021704" fill="#E9812C"></path>
            <path d="M81.574713,42.5605766 L56.4814414,5.58785071 L63.8761184,0.569328185 L88.96939,37.5420541 L81.574713,42.5605766" fill="#E5712A"></path>
            <path d="M62.5819511,84.0378481 L17.9641493,81.6017297 L18.4511094,72.6776422 L63.0689112,75.1144196 L62.5819511,84.0378481" fill="#9D8469"></path>
            <path d="M71.8328752,105.058842 L71.8328752,68.0353771 L80.7615753,68.0353771 L80.7681647,113.997426 L0,113.997426 L0.00197683398,67.9964994 L8.9385843,67.9964994 L8.9385843,105.058842 L71.8328752,105.058842" fill="#797B7B"></path>
            <path d="M17.8402677,87.2205508 L62.8277375,87.2205508 L62.8277375,96.1571583 L17.8402677,96.1571583 L17.8402677,87.2205508 Z" fill="#797B7B"></path>
        </g>
    </g>
</svg>
